packages/kaspersky-hexa-ui-icons/src/iconsSVGs/24/Host.svg

<svg width="24" height="24" viewBox="0 0 24 24" fill="none" xmlns="http://www.w3.org/2000/svg">
<path d="M7 6C6.44772 6 6 6.51167 6 7.14286V12.8571C6 13.4883 6.44771 14 7 14H17C17.5523 14 18 13.4883 18 12.8571V7.14286C18 6.51167 17.5523 6 17 6H7Z" fill="black"/>
<path fill-rule="evenodd" clip-rule="evenodd" d="M5 2C3.34315 2 2 3.38647 2 5.09677V14.9032C2 16.6135 3.34315 18 5 18H10.875V20H7.5C6.94772 20 6.5 20.4477 6.5 21C6.5 21.5523 6.94772 22 7.5 22H16.5C17.0523 22 17.5 21.5523 17.5 21C17.5 20.4477 17.0523 20 16.5 20H13.125V18H19C20.6569 18 22 16.6135 22 14.9032V5.09677C22 3.38647 20.6569 2 19 2H5ZM4 5.09677C4 4.52667 4.44771 4.06452 5 4.06452H19C19.5523 4.06452 20 4.52667 20 5.09677V14.9032C20 15.4733 19.5523 15.9355 19 15.9355H5C4.44772 15.9355 4 15.4733 4 14.9032V5.09677Z" fill="black"/>
</svg>

<svg xmlns="http://www.w3.org/2000/svg" width="24" height="24" fill="none" viewBox="0 0 24 24"><path fill="#000" fill-rule="evenodd" d="M5 2C3.3432 2 2 3.3865 2 5.0968v9.8064C2 16.6135 3.3432 18 5 18h5.875v2H7.5c-.5523 0-1 .4477-1 1s.4477 1 1 1h9c.5523 0 1-.4477 1-1s-.4477-1-1-1h-3.375v-2H19c1.6569 0 3-1.3865 3-3.0968V5.0968C22 3.3865 20.6569 2 19 2zM4 5.0968c0-.5701.4477-1.0323 1-1.0323h14c.5523 0 1 .4622 1 1.0323v9.8064c0 .5701-.4477 1.0323-1 1.0323H5c-.5523 0-1-.4622-1-1.0323z"/></svg>
